X: 40205
T: Tinker's Daughter, The
R: reel
M: 4/4
K: Dmajor
dB|:A2FA DFAd|f2fd efdc|A2FA DAFA|B2dB BAFB|
A2FA DFAd|f2fd efd2|faaa b2af|e2de fdd2:|
|:faaa baaf|dfaf e2de|f2df efdf|f2df edBd|
faaa baaf|dfaf e2de|f2df efdB|AFEG FDD2:|

